22x22/apps/etr.svg

<svg xmlns="http://www.w3.org/2000/svg" width="22" height="22" version="1">
 <path style="opacity:0.2" d="M 22,11 A 10.5,10.5 0 0 1 11.5,21.5 10.5,10.5 0 0 1 1,11 10.5,10.5 0 0 1 11.5,0.5 10.5,10.5 0 0 1 22,11 Z"/>
 <path style="fill:#72a0d1;stroke:#000000;stroke-width:0;stroke-linecap:round;stroke-linejoin:round" d="M 17.098633,7.97691 15.166992,9.109721 14.259766,9.641948 A 1.0001,1.0001 0 0 1 13.021485,9.460307 C 12.309504,8.694556 10.674659,7.999371 8.75,7.999371 7.3266635,7.999371 6.0516745,8.362362 5.2041015,8.878276 4.3565285,9.394191 4,9.976805 4,10.49937 c 0,0.522564 0.3565285,1.105179 1.2041015,1.621094 0.847573,0.515914 2.122562,0.878906 3.5458985,0.878906 1.924659,0 3.559504,-0.695187 4.271485,-1.460938 a 1.0001,1.0001 0 0 1 1.238281,-0.18164 l 0.907226,0.532226 1.931641,1.132813 c -0.01869,-0.04968 -0.0193,-0.04045 -0.03808,-0.0918 C 16.794976,12.203907 16.5,11.364886 16.5,10.49937 c 0,-0.865516 0.294961,-1.704756 0.560547,-2.430663 0.01879,-0.05136 0.01938,-0.0421 0.03808,-0.091797 z"/>
 <path style="fill:#d76337" d="M 22,10.5 A 10.5,10.5 0 0 1 11.5,21 10.5,10.5 0 0 1 1,10.5 10.5,10.5 0 0 1 11.5,0 10.5,10.5 0 0 1 22,10.5 Z"/>
 <path style="opacity:0.2" d="m 17.769531,6.000226 c -0.276925,0.00864 -0.55306,0.088251 -0.794922,0.2304688 L 14.15625,7.8849916 13.744141,8.125226 C 12.467704,7.1337523 10.761529,6.500226 8.75,6.500226 6.9976996,6.500226 5.3975803,6.921264 4.1640625,7.672101 2.9305447,8.422938 1.9999999,9.589795 2,11.000226 c -1e-7,1.410431 0.9305448,2.577288 2.1640625,3.328125 1.2335177,0.750837 2.833637,1.171875 4.5859375,1.171875 2.011371,0 3.716098,-0.635866 4.992188,-1.626953 l 0.414062,0.242187 2.820312,1.654297 c 1.07829,0.632185 2.523524,-0.218264 2.523438,-1.458984 a 1.0001,1.0001 0 0 0 -0.0918,-0.419922 c 0,0 -0.23432,-0.505503 -0.46875,-1.146484 C 18.705026,12.103385 18.5,11.287369 18.5,11.000226 c 0,-0.287144 0.205023,-1.103159 0.439453,-1.744141 0.23443,-0.6409812 0.46875,-1.146484 0.46875,-1.146484 A 1.0001,1.0001 0 0 0 19.5,7.6896791 C 19.500609,6.7574489 18.713608,5.9717417 17.771484,6.000226 a 1.0001,1.0001 0 0 0 -0.002,0 z"/>
 <path style="fill:#142f56" d="m 17.769531,5.5 c -0.276925,0.00864 -0.55306,0.088251 -0.794922,0.2304688 L 14.15625,7.3847656 13.744141,7.625 C 12.467704,6.6335263 10.761529,6 8.75,6 6.9976996,6 5.3975803,6.421038 4.1640625,7.171875 2.9305447,7.922712 1.9999999,9.089569 2,10.5 c -1e-7,1.410431 0.9305448,2.577288 2.1640625,3.328125 C 5.3975802,14.578962 6.9976995,15 8.75,15 c 2.011371,0 3.716098,-0.635866 4.992188,-1.626953 l 0.414062,0.242187 2.820312,1.654297 c 1.07829,0.632185 2.523524,-0.218264 2.523438,-1.458984 a 1.0001,1.0001 0 0 0 -0.0918,-0.419922 c 0,0 -0.23432,-0.505503 -0.46875,-1.146484 C 18.705026,11.603159 18.5,10.787143 18.5,10.5 c 0,-0.287144 0.205023,-1.103159 0.439453,-1.7441406 0.23443,-0.6409816 0.46875,-1.1464844 0.46875,-1.1464844 A 1.0001,1.0001 0 0 0 19.5,7.1894531 C 19.500609,6.2572229 18.713608,5.4715157 17.771484,5.5 a 1.0001,1.0001 0 0 0 -0.002,0 z"/>
 <path style="fill:#8dc6ff" d="M 17.097656,7.9765625 15.167969,9.109375 14.259766,9.642578 C 13.85544,9.879689 13.34068,9.80418 13.021484,9.460938 12.309505,8.6951873 10.674659,8 8.75,8 7.3266633,8 6.050698,8.3629926 5.203125,8.8789062 4.355552,9.39482 4,9.977435 4,10.5 4,11.022564 4.355552,11.603226 5.203125,12.119141 6.050698,12.635055 7.3266635,13 8.75,13 c 1.924659,0 3.559502,-0.695188 4.271484,-1.460938 0.319196,-0.343242 0.833956,-0.418751 1.238282,-0.18164 l 0.908203,0.53125 1.929687,1.132812 c -0.01863,-0.04951 -0.0184,-0.04063 -0.03711,-0.0918 C 16.794977,12.203561 16.5,11.365516 16.5,10.5 c 0,-0.865516 0.294963,-1.7057331 0.560547,-2.4316406 0.01874,-0.051219 0.01846,-0.042242 0.03711,-0.091797 z"/>
 <path style="opacity:0.2;fill:#f4f4f7" d="M 11.5,0 A 10.5,10.5 0 0 0 1,10.5 10.5,10.5 0 0 0 1.0097656,10.796875 10.5,10.5 0 0 1 11.5,0.5 10.5,10.5 0 0 1 21.990234,10.703125 10.5,10.5 0 0 0 22,10.5 10.5,10.5 0 0 0 11.5,0 Z"/>
</svg>

<svg xmlns="http://www.w3.org/2000/svg" width="22" height="22" version="1"><path style="opacity:.2" d="M22 11a10.5 10.5 0 0 1-10.5 10.5A10.5 10.5 0 0 1 1 11 10.5 10.5 0 0 1 11.5.5 10.5 10.5 0 0 1 22 11z"/><path style="fill:#72a0d1;stroke:#000;stroke-width:0;stroke-linecap:round;stroke-linejoin:round" d="M17.099 7.977 15.167 9.11l-.907.532a1 1 0 0 1-1.239-.182C12.31 8.695 10.675 8 8.75 8c-1.423 0-2.698.362-3.546.878C4.357 9.394 4 9.977 4 10.5c0 .523.357 1.106 1.204 1.621.848.516 2.123.88 3.546.88 1.925 0 3.56-.696 4.271-1.462a1 1 0 0 1 1.239-.181l.907.532 1.932 1.133c-.02-.05-.02-.04-.038-.092-.266-.726-.561-1.565-.561-2.43 0-.866.295-1.705.56-2.431.02-.052.02-.042.039-.092z"/><path style="fill:#d76337" d="M22 10.5A10.5 10.5 0 0 1 11.5 21 10.5 10.5 0 0 1 1 10.5 10.5 10.5 0 0 1 11.5 0 10.5 10.5 0 0 1 22 10.5z"/><path style="opacity:.2" d="M17.77 6a1.68 1.68 0 0 0-.795.23l-2.819 1.655-.412.24C12.468 7.134 10.762 6.5 8.75 6.5c-1.752 0-3.352.421-4.586 1.172C2.931 8.422 2 9.59 2 11s.93 2.578 2.164 3.328C5.398 15.08 6.998 15.5 8.75 15.5c2.011 0 3.716-.636 4.992-1.627l.414.242 2.82 1.655c1.079.632 2.524-.219 2.524-1.46a1 1 0 0 0-.092-.42s-.234-.505-.469-1.146c-.234-.64-.439-1.457-.439-1.744 0-.287.205-1.103.44-1.744.234-.64.468-1.146.468-1.146a1 1 0 0 0 .092-.42c0-.933-.786-1.718-1.729-1.69a1 1 0 0 0-.002 0z"/><path style="fill:#142f56" d="M17.77 5.5a1.68 1.68 0 0 0-.795.23l-2.819 1.655-.412.24C12.468 6.634 10.762 6 8.75 6c-1.752 0-3.352.421-4.586 1.172C2.931 7.922 2 9.09 2 10.5s.93 2.577 2.164 3.328C5.398 14.58 6.998 15 8.75 15c2.011 0 3.716-.636 4.992-1.627l.414.242 2.82 1.655c1.079.632 2.524-.219 2.524-1.46a1 1 0 0 0-.092-.42s-.234-.505-.469-1.146c-.234-.64-.439-1.457-.439-1.744 0-.287.205-1.103.44-1.744.234-.641.468-1.147.468-1.147a1 1 0 0 0 .092-.42c0-.932-.786-1.717-1.729-1.689a1 1 0 0 0-.002 0z"/><path style="fill:#8dc6ff" d="m17.098 7.977-1.93 1.132-.908.534a1 1 0 0 1-1.239-.182C12.31 8.695 10.675 8 8.75 8c-1.423 0-2.7.363-3.547.879S4 9.977 4 10.5c0 .523.356 1.103 1.203 1.62.848.515 2.124.88 3.547.88 1.925 0 3.56-.695 4.271-1.46a1 1 0 0 1 1.239-.183l.908.532 1.93 1.132c-.019-.049-.019-.04-.037-.091-.266-.726-.561-1.564-.561-2.43 0-.866.295-1.706.56-2.432.02-.05.019-.042.038-.091z"/><path style="opacity:.2;fill:#f4f4f7" d="M11.5 0A10.5 10.5 0 0 0 1 10.5a10.5 10.5 0 0 0 .01.297A10.5 10.5 0 0 1 11.5.5a10.5 10.5 0 0 1 10.49 10.203A10.5 10.5 0 0 0 22 10.5 10.5 10.5 0 0 0 11.5 0z"/></svg>
